icons/solid/puzzle.svg

<svg width="24" height="24" viewBox="0 0 24 24" fill="none" xmlns="http://www.w3.org/2000/svg">
<path fill-rule="evenodd" clip-rule="evenodd" d="M14 2C12.3431 2 11 3.34315 11 5H7C5.89543 5 5 5.89543 5 7V10C3.34315 10 2 11.3431 2 13C2 14.6569 3.34315 16 5 16V20C5 21.1046 5.89543 22 7 22H10.25C11.2165 22 12 21.2165 12 20.25C12 19.5596 12.5596 19 13.25 19H14.75C15.4404 19 16 19.5596 16 20.25C16 21.2165 16.7835 22 17.75 22H20C21.1046 22 22 21.1046 22 20V16.75C22 15.7835 21.2165 15 20.25 15C19.5596 15 19 14.4404 19 13.75V12.25C19 11.5596 19.5596 11 20.25 11C21.2165 11 22 10.2165 22 9.25V7C22 5.89543 21.1046 5 20 5H17C17 3.34315 15.6569 2 14 2Z" fill="currentColor"/>
</svg>

<svg width="24" height="24" fill="none" xmlns="http://www.w3.org/2000/svg"><path fill-rule="evenodd" clip-rule="evenodd" d="M14 2a3 3 0 00-3 3H7a2 2 0 00-2 2v3a3 3 0 100 6v4a2 2 0 002 2h3.25A1.75 1.75 0 0012 20.25c0-.69.56-1.25 1.25-1.25h1.5c.69 0 1.25.56 1.25 1.25 0 .966.784 1.75 1.75 1.75H20a2 2 0 002-2v-3.25A1.75 1.75 0 0020.25 15c-.69 0-1.25-.56-1.25-1.25v-1.5c0-.69.56-1.25 1.25-1.25A1.75 1.75 0 0022 9.25V7a2 2 0 00-2-2h-3a3 3 0 00-3-3z" fill="currentColor"/></svg>
